set-merge.svg

<svg fill="currentColor" viewBox="0 0 24 24"><path d="M2 7v2h5V7zm10 2v2H9v2h3v2l3-3zm5 0v6h5V9zM2 11v2h5v-2zm0 4v2h5v-2z"/></svg>

<svg  viewBox="0 0 24 24" fill="currentColor"><path  d="M2 7V9H7V7H2M12 9V11H9V13H12V15L15 12L12 9M17 9V15H22V9H17M2 11V13H7V11H2M2 15V17H7V15H2Z"/></svg>
